assets/svg/logo_big.svg

<svg fill="none" height="30" viewBox="0 0 156 30" width="156" xmlns="http://www.w3.org/2000/svg"><g clip-rule="evenodd" fill="#00343d" fill-rule="evenodd"><path d="m41.4136 17.1002 6.3908 7.5316c.2749.321.3251.6744.1099 1.0312-.0449.0833-.1267.1519-.2045.2171-.0106.0089-.0212.0178-.0315.0266l-.2159.1826-.7641.6507c-.3225.2743-.791.2813-1.129-.0557l-6.617-7.8658v7.3168c0 .4562-.3699.805-.8123.805h-1.2441c-.4306 0-.8124-.3355-.8124-.8293v-22.29817c0-.36517.3376-.75717.8124-.75717h1.2441c.4877 0 .8123.3745.8123.825v12.43904.0171l6.3626-5.8255c.2539-.2706.6699-.2778.9289-.0083l.6444.6745c.1621.1615.2734.5415.1123.8687-.0233.0408-.087.1516-.1449.2115l-5.4248 4.8235zm76.1404-6.7582c1.978 0 3.669.7202 5.072 2.1625 1.549 1.5822 2.326 3.6344 2.326 6.1384 0 2.5488-.777 4.6011-2.326 6.1685-1.422 1.4213-3.118 2.1288-5.087 2.1288-1.963 0-3.681-.6717-5.121-2.1253v1.298c0 .4573-.359.8273-.807.8273h-1.257c-.444 0-.805-.3573-.805-.8145v-.7477-1.0928-17.5145-1.186-.52117c0-.45416.361-.813.805-.813h1.257c.448 0 .807.36984.807.82417v1.696.00633 6.13287c1.355-1.6292 3.164-2.5679 5.136-2.5679zm-12.938 6.7579v6.9759 1.475.5763c0 .449.361.813.799.813h1.289c.443 0 .793-.364.793-.813v-.5763-1.475-7.8315c0-1.5877-.432-2.9282-1.241-4.0202-.93-1.2788-2.382-1.8597-3.945-1.9205-1.945 0-2.8382.3288-4.0025 1.1715-.81.6538-1.1996 1.2662-1.5163 1.7858-.4748-.8736-.91-1.3856-1.5152-1.8411-1.1556-.8704-2.1534-1.059-3.1703-1.1125-1.9416-.0725-3.7402.6313-5.0058 2.3155v-.7365-.1362c0-.4475-.3583-.813-.7968-.813h-1.3048c-.4375 0-.7959.3655-.7959.813v.1362 1.5185 10.671 1.475.5763c0 .449.3584.813.7959.813h1.3048c.4385 0 .7968-.364.7968-.813v-.5763-1.475-6.9759c0-.5208.4698-4.1976 4.2185-4.1976 2.7283 0 3.0921 2.6011 3.0921 3.8985v7.275 1.475.5763c0 .449.3554.813.7994.813h1.2702c.4402 0 .7956-.364.7956-.813v-.5763-1.475-6.9759s.2031-4.1903 4.1963-4.1903c3.432 0 3.143 4.1903 3.143 4.1903zm28.988 7.2382c-3.226-.1912-4.627-2.781-4.627-4.7459h10.397s.774-.1363 1.026-.4081c.258-.2695.384-.6039.384-1.0007 0-2.1892-.624-4.0293-1.872-5.5122-1.33-1.5863-3.138-2.3675-5.426-2.3675-2.413 0-4.272.8464-5.579 2.5579-1.166 1.5205-1.748 3.433-1.748 5.7318 0 2.6515.695 4.694 2.087 6.1357 1.259 1.3076 3.034 2.091 5.225 2.2111 5.591 0 7.02-4.5883 7.02-4.5883.309-1.0788-.251-1.0913-1.024-1.1084v-.0001c-.12-.0026-.245-.0054-.373-.0123-.344-.0205-.722.1741-.916.3813-.117.1245-.196.2597-.196.2597-1.51 2.731-4.378 2.466-4.378 2.466zm-76.6687-14.0335c2.4526 0 4.4171.7645 5.8963 2.2908 1.4818 1.5483 2.2216 3.5583 2.2216 6.029 0 2.4663-.7398 4.4788-2.2216 6.0261-1.4792 1.5284-3.4437 2.2897-5.8963 2.2897-2.4745 0-4.4417-.7613-5.8989-2.2897-1.4807-1.5256-2.219-3.5388-2.219-6.0261 0-2.4917.7383-4.5012 2.219-6.029 1.4572-1.5263 3.4244-2.2908 5.8989-2.2908zm-3.5368 12.7308c.4963.45 1.0581.7796 1.6805.9881.6237.2104 1.2359.3147 1.8389.3147.6053 0 1.2156-.1043 1.8404-.3147.6218-.2085 1.1892-.5366 1.6963-.9718 1.1422-1.0252 1.7112-2.5173 1.7112-4.463 0-1.8807-.569-3.3485-1.7112-4.3912-.9505-.8576-2.1262-1.2875-3.5197-1.2875-2.2832 0-3.8711 1.0162-4.7562 3.0452-.3199.7328-.479 1.6172-.479 2.6483 0 1.0384.1591 1.9252.479 2.6549.3145.7365.7223 1.3233 1.2198 1.7771zm21.022-12.7308c2.452 0 4.4176.7645 5.8974 2.2908 1.4817 1.5483 2.22 3.5583 2.22 6.029 0 2.4663-.7383 4.4788-2.22 6.0261-1.4798 1.5284-3.4454 2.2897-5.8974 2.2897-2.4745 0-4.4395-.7613-5.8985-2.2897-1.4806-1.5256-2.22-3.5388-2.22-6.0261 0-2.4917.7394-4.5012 2.22-6.029 1.459-1.5263 3.424-2.2908 5.8985-2.2908zm-1.8551 13.7189c-.6238-.2085-1.1859-.5381-1.6808-.9881v.0001c-.4993-.4538-.9038-1.0406-1.2217-1.7771-.3194-.7297-.4763-1.6165-.4763-2.6549 0-1.0311.1569-1.9155.4763-2.6483.8884-2.029 2.4745-3.0452 4.7574-3.0452 1.3928 0 2.5682.4299 3.518 1.2875 1.1418 1.0427 1.7124 2.5105 1.7124 4.3912 0 1.9457-.5706 3.4378-1.7124 4.463-.5065.4352-1.0741.7633-1.6955.9718-.6229.2104-1.2354.3147-1.8391.3147-.6041 0-1.2166-.1043-1.8383-.3147zm57.0416-8.7666c-.288.5825-.5 1.1163-.6 1.8428h8.961c-.221-1.447-.768-2.4936-1.597-3.2566-.781-.7165-1.762-.9334-2.885-.9334-1.787 0-3.133.8437-3.879 2.3472zm22.851 1.1719c-.128-1.9608-1.618-2.8711-1.618-2.8711s-1.013-.6777-2.486-.6777c-1.188 0-2.319.2712-2.951.9483-.606.6501-1.023.65-2.263.6499h-.061c-.787 0-.738-.7819-.6-1.0444 1.694-3.2276 6.386-3.1215 6.386-3.1215v-.0021c2.32 0 4.156 1.12 4.896 1.9518 1.032 1.136 1.548 2.4905 1.548 4.1912v7.817 1.0991.7394c0 .4593-.363.8315-.815.8315h-1.193c-.446 0-.812-.3722-.812-.8315v-.7394-.5536l-.017.0144c-.663.569-2.458 2.1101-5.807 2.1101-1.423 0-2.517-.451-3.468-1.2885-.992-.884-1.582-2.0072-1.582-3.4369 0-1.5521.578-2.7685 1.736-3.655 1.257-.9633 3.054-1.4443 5.389-1.4443h3.233c.479 0 .498-.5542.485-.6867zm.02 4.8257v.0102c-.003.1055-.013.4149-.195.6655-.426.6012-.94 1.1218-1.609 1.5088-.767.4414-1.76.8989-2.648.8989-2.006 0-3.27-.8359-3.211-2.6039.03-.8931.67-1.4133 1.424-1.7593.755-.3435 1.807-.5195 3.15-.5195h2.7s.389-.0083.389.3668zm-30.675-.0851c-.774 2.1321-2.321 3.1981-4.643 3.1981-1.043 0-4.742-.4378-4.742-5.7165 0-4.3558 3.001-5.5621 4.742-5.5621 1.506 0 2.71.4715 3.603 1.4113.938 1.0205 1.408 2.4312 1.408 4.2282 0 .918-.123 1.7313-.368 2.441z"/><path d="m15.0924 7.39927c-4.2144 0-7.62976 3.40393-7.62976 7.60163 0 4.1965 3.41536 7.5988 7.62976 7.5988 4.2132 0 7.6291-3.4023 7.6291-7.5988 0-4.1977-3.4159-7.60163-7.6291-7.60163zm0-3.1967 2.5185 2.47401 3.4622-.7238.7755 3.43889 3.3064 1.25423-1.2129 3.3092 2.1002 2.837-2.8173 2.1315.2275 3.5159-3.5266.2771-1.7169 3.0809-3.1166-1.6676-3.1167 1.6676-1.7169-3.0809-3.52664-.2771.22755-3.5159-2.81677-2.1315 2.09964-2.837-1.21339-3.3092 3.3058-1.25423.77666-3.43889 3.46155.7238z"/><path d="m15.0918 2.89247c-6.70229 0-12.15279 5.43128-12.15279 12.10843 0 6.6761 5.4505 12.1068 12.15279 12.1068 6.7012 0 12.1533-5.4307 12.1533-12.1068 0-6.67715-5.4521-12.10843-12.1533-12.10843zm0 26.44093c-7.93348 0-14.388187-6.43-14.388187-14.3325 0-7.90417 6.454707-14.334152 14.388187-14.334152 7.9329 0 14.3887 6.429982 14.3887 14.334152 0 7.9025-6.4558 14.3325-14.3887 14.3325z"/><path d="m15.0924 18.221c-1.7831 0-3.2335-1.4448-3.2335-3.2205 0-1.7763 1.4504-3.2211 3.2335-3.2211 1.7825 0 3.2323 1.4448 3.2323 3.2211 0 1.7757-1.4498 3.2205-3.2323 3.2205zm0-7.9568c-2.6221 0-4.7535 2.1254-4.7535 4.7363 0 2.6114 2.1314 4.7357 4.7535 4.7357 2.6209 0 4.7534-2.1243 4.7534-4.7357 0-2.6109-2.1325-4.7363-4.7534-4.7363z"/></g></svg>

<svg width="156" height="30" viewBox="0 0 156 30" fill="none" xmlns="http://www.w3.org/2000/svg">
<path fill-rule="evenodd" clip-rule="evenodd" d="M41.4136 17.1002L47.8044 24.6318C48.0793 24.9528 48.1295 25.3062 47.9143 25.663C47.8694 25.7463 47.7876 25.8149 47.7098 25.8801C47.6992 25.889 47.6886 25.8979 47.6783 25.9067L47.4624 26.0893L46.6983 26.74C46.3758 27.0143 45.9073 27.0213 45.5693 26.6843L38.9523 18.8185V26.1353C38.9523 26.5915 38.5824 26.9403 38.14 26.9403H36.8959C36.4653 26.9403 36.0835 26.6048 36.0835 26.111V3.81283C36.0835 3.44766 36.4211 3.05566 36.8959 3.05566H38.14C38.6277 3.05566 38.9523 3.43016 38.9523 3.88066V16.3197V16.3368L45.3149 10.5113C45.5688 10.2407 45.9848 10.2335 46.2438 10.503L46.8882 11.1775C47.0503 11.339 47.1616 11.719 47.0005 12.0462C46.9772 12.087 46.9135 12.1978 46.8556 12.2577L41.4308 17.0812L41.4136 17.1002ZM117.554 10.342C119.532 10.342 121.223 11.0622 122.626 12.5045C124.175 14.0867 124.952 16.1389 124.952 18.6429C124.952 21.1917 124.175 23.244 122.626 24.8114C121.204 26.2327 119.508 26.9402 117.539 26.9402C115.576 26.9402 113.858 26.2685 112.418 24.8149V26.1129C112.418 26.5702 112.059 26.9402 111.611 26.9402H110.354C109.91 26.9402 109.549 26.5829 109.549 26.1257V25.378V24.2852V6.7707V5.5847V5.06353C109.549 4.60937 109.91 4.25053 110.354 4.25053H111.611C112.059 4.25053 112.418 4.62037 112.418 5.0747V6.7707V6.77703V12.9099C113.773 11.2807 115.582 10.342 117.554 10.342ZM104.616 17.0999V24.0758V25.5508V26.1271C104.616 26.5761 104.977 26.9401 105.415 26.9401H106.704C107.147 26.9401 107.497 26.5761 107.497 26.1271V25.5508V24.0758V16.2443C107.497 14.6566 107.065 13.3161 106.256 12.2241C105.326 10.9453 103.874 10.3644 102.311 10.3036C100.366 10.3036 99.4728 10.6324 98.3085 11.4751C97.4985 12.1289 97.1089 12.7413 96.7922 13.2609C96.3174 12.3873 95.8822 11.8753 95.277 11.4198C94.1214 10.5494 93.1236 10.3608 92.1067 10.3073C90.1651 10.2348 88.3665 10.9386 87.1009 12.6228V11.8863V11.7501C87.1009 11.3026 86.7426 10.9371 86.3041 10.9371H84.9993C84.5618 10.9371 84.2034 11.3026 84.2034 11.7501V11.8863V13.4048V24.0758V25.5508V26.1271C84.2034 26.5761 84.5618 26.9401 84.9993 26.9401H86.3041C86.7426 26.9401 87.1009 26.5761 87.1009 26.1271V25.5508V24.0758V17.0999C87.1009 16.5791 87.5707 12.9023 91.3194 12.9023C94.0477 12.9023 94.4115 15.5034 94.4115 16.8008V24.0758V25.5508V26.1271C94.4115 26.5761 94.7669 26.9401 95.2109 26.9401H96.4811C96.9213 26.9401 97.2767 26.5761 97.2767 26.1271V25.5508V24.0758V17.0999C97.2767 17.0999 97.4798 12.9096 101.473 12.9096C104.905 12.9096 104.616 17.0999 104.616 17.0999ZM133.604 24.3381C130.378 24.1469 128.977 21.5571 128.977 19.5922H139.374C139.374 19.5922 140.148 19.4559 140.4 19.1841C140.658 18.9146 140.784 18.5802 140.784 18.1834C140.784 15.9942 140.16 14.1541 138.912 12.6712C137.582 11.0849 135.774 10.3037 133.486 10.3037C131.073 10.3037 129.214 11.1501 127.907 12.8616C126.741 14.3821 126.159 16.2946 126.159 18.5934C126.159 21.2449 126.854 23.2874 128.246 24.7291C129.505 26.0367 131.28 26.8201 133.471 26.9402C139.062 26.9402 140.491 22.3519 140.491 22.3519C140.8 21.2731 140.24 21.2606 139.467 21.2435L139.467 21.2434C139.347 21.2408 139.222 21.238 139.094 21.2311C138.75 21.2106 138.372 21.4052 138.178 21.6124C138.061 21.7369 137.982 21.8721 137.982 21.8721C136.472 24.6031 133.604 24.3381 133.604 24.3381ZM56.9353 10.3046C59.3879 10.3046 61.3524 11.0691 62.8316 12.5954C64.3134 14.1437 65.0532 16.1537 65.0532 18.6244C65.0532 21.0907 64.3134 23.1032 62.8316 24.6505C61.3524 26.1789 59.3879 26.9402 56.9353 26.9402C54.4608 26.9402 52.4936 26.1789 51.0364 24.6505C49.5557 23.1249 48.8174 21.1117 48.8174 18.6244C48.8174 16.1327 49.5557 14.1232 51.0364 12.5954C52.4936 11.0691 54.4608 10.3046 56.9353 10.3046ZM53.3985 23.0354C53.8948 23.4854 54.4566 23.815 55.079 24.0235C55.7027 24.2339 56.3149 24.3382 56.9179 24.3382C57.5232 24.3382 58.1335 24.2339 58.7583 24.0235C59.3801 23.815 59.9475 23.4869 60.4546 23.0517C61.5968 22.0265 62.1658 20.5344 62.1658 18.5887C62.1658 16.708 61.5968 15.2402 60.4546 14.1975C59.5041 13.3399 58.3284 12.91 56.9349 12.91C54.6517 12.91 53.0638 13.9262 52.1787 15.9552C51.8588 16.688 51.6997 17.5724 51.6997 18.6035C51.6997 19.6419 51.8588 20.5287 52.1787 21.2584C52.4932 21.9949 52.901 22.5817 53.3985 23.0355V23.0354ZM74.4205 10.3046C76.8725 10.3046 78.8381 11.0691 80.3179 12.5954C81.7996 14.1437 82.5379 16.1537 82.5379 18.6244C82.5379 21.0907 81.7996 23.1032 80.3179 24.6505C78.8381 26.1789 76.8725 26.9402 74.4205 26.9402C71.946 26.9402 69.981 26.1789 68.522 24.6505C67.0414 23.1249 66.302 21.1117 66.302 18.6244C66.302 16.1327 67.0414 14.1232 68.522 12.5954C69.981 11.0691 71.946 10.3046 74.4205 10.3046ZM72.5654 24.0235C71.9416 23.815 71.3795 23.4854 70.8846 23.0354V23.0355C70.3853 22.5817 69.9808 21.9949 69.6629 21.2584C69.3435 20.5287 69.1866 19.6419 69.1866 18.6035C69.1866 17.5724 69.3435 16.688 69.6629 15.9552C70.5513 13.9262 72.1374 12.91 74.4203 12.91C75.8131 12.91 76.9885 13.3399 77.9383 14.1975C79.0801 15.2402 79.6507 16.708 79.6507 18.5887C79.6507 20.5344 79.0801 22.0265 77.9383 23.0517C77.4318 23.4869 76.8642 23.815 76.2428 24.0235C75.6199 24.2339 75.0074 24.3382 74.4037 24.3382C73.7996 24.3382 73.1871 24.2339 72.5654 24.0235ZM129.607 15.2569C129.319 15.8394 129.107 16.3732 129.007 17.0997H137.968C137.747 15.6527 137.2 14.6061 136.371 13.8431C135.59 13.1266 134.609 12.9097 133.486 12.9097C131.699 12.9097 130.353 13.7534 129.607 15.2569ZM152.458 16.4288C152.33 14.468 150.84 13.5577 150.84 13.5577C150.84 13.5577 149.827 12.88 148.354 12.88C147.166 12.88 146.035 13.1512 145.403 13.8283C144.797 14.4784 144.38 14.4783 143.14 14.4782L143.079 14.4782C142.292 14.4782 142.341 13.6963 142.479 13.4338C144.173 10.2062 148.865 10.3123 148.865 10.3123V10.3102C151.185 10.3102 153.021 11.4302 153.761 12.262C154.793 13.398 155.309 14.7525 155.309 16.4532V24.2702V25.3693V26.1087C155.309 26.568 154.946 26.9402 154.494 26.9402H153.301C152.855 26.9402 152.489 26.568 152.489 26.1087V25.3693V24.8157L152.472 24.8301C151.809 25.3991 150.014 26.9402 146.665 26.9402C145.242 26.9402 144.148 26.4892 143.197 25.6517C142.205 24.7677 141.615 23.6445 141.615 22.2148C141.615 20.6627 142.193 19.4463 143.351 18.5598C144.608 17.5965 146.405 17.1155 148.74 17.1155H151.973C152.452 17.1155 152.471 16.5613 152.458 16.4288ZM152.478 21.2545L152.478 21.2647C152.475 21.3702 152.465 21.6796 152.283 21.9302C151.857 22.5314 151.343 23.052 150.674 23.439C149.907 23.8804 148.914 24.3379 148.026 24.3379C146.02 24.3379 144.756 23.502 144.815 21.734C144.845 20.8409 145.485 20.3207 146.239 19.9747C146.994 19.6312 148.046 19.4552 149.389 19.4552H152.089C152.089 19.4552 152.478 19.4469 152.478 19.822V21.2545ZM121.803 21.1694C121.029 23.3015 119.482 24.3675 117.16 24.3675C116.117 24.3675 112.418 23.9297 112.418 18.651C112.418 14.2952 115.419 13.0889 117.16 13.0889C118.666 13.0889 119.87 13.5604 120.763 14.5002C121.701 15.5207 122.171 16.9314 122.171 18.7284C122.171 19.6464 122.048 20.4597 121.803 21.1694Z" fill="#00343D"/>
<path fill-rule="evenodd" clip-rule="evenodd" d="M15.0924 7.39927C10.878 7.39927 7.46264 10.8032 7.46264 15.0009C7.46264 19.1974 10.878 22.5997 15.0924 22.5997C19.3056 22.5997 22.7215 19.1974 22.7215 15.0009C22.7215 10.8032 19.3056 7.39927 15.0924 7.39927ZM15.0924 4.20257L17.6109 6.67658L21.0731 5.95278L21.8486 9.39167L25.155 10.6459L23.9421 13.9551L26.0423 16.7921L23.225 18.9236L23.4525 22.4395L19.9259 22.7166L18.209 25.7975L15.0924 24.1299L11.9757 25.7975L10.2588 22.7166L6.73216 22.4395L6.95971 18.9236L4.14294 16.7921L6.24258 13.9551L5.02919 10.6459L8.33499 9.39167L9.11165 5.95278L12.5732 6.67658L15.0924 4.20257Z" fill="#00343D"/>
<path fill-rule="evenodd" clip-rule="evenodd" d="M15.0918 2.89247C8.38951 2.89247 2.93901 8.32375 2.93901 15.0009C2.93901 21.677 8.38951 27.1077 15.0918 27.1077C21.793 27.1077 27.2451 21.677 27.2451 15.0009C27.2451 8.32375 21.793 2.89247 15.0918 2.89247ZM15.0918 29.3334C7.15832 29.3334 0.703613 22.9034 0.703613 15.0009C0.703613 7.09673 7.15832 0.666748 15.0918 0.666748C23.0247 0.666748 29.4805 7.09673 29.4805 15.0009C29.4805 22.9034 23.0247 29.3334 15.0918 29.3334Z" fill="#00343D"/>
<path fill-rule="evenodd" clip-rule="evenodd" d="M15.0924 18.221C13.3093 18.221 11.8589 16.7762 11.8589 15.0005C11.8589 13.2242 13.3093 11.7794 15.0924 11.7794C16.8749 11.7794 18.3247 13.2242 18.3247 15.0005C18.3247 16.7762 16.8749 18.221 15.0924 18.221ZM15.0924 10.2642C12.4703 10.2642 10.3389 12.3896 10.3389 15.0005C10.3389 17.6119 12.4703 19.7362 15.0924 19.7362C17.7133 19.7362 19.8458 17.6119 19.8458 15.0005C19.8458 12.3896 17.7133 10.2642 15.0924 10.2642Z" fill="#00343D"/>
</svg>
